app/assets/icons/purdue.svg

<?xml version="1.0" encoding="UTF-8" standalone="no"?>
<!-- Created with Inkscape (http://www.inkscape.org/) -->

<svg
   xmlns:dc="http://purl.org/dc/elements/1.1/"
   xmlns:cc="http://creativecommons.org/ns#"
   xmlns:rdf="http://www.w3.org/1999/02/22-rdf-syntax-ns#"
   xmlns:svg="http://www.w3.org/2000/svg"
   xmlns="http://www.w3.org/2000/svg"
   xmlns:sodipodi="http://sodipodi.sourceforge.net/DTD/sodipodi-0.dtd"
   xmlns:inkscape="http://www.inkscape.org/namespaces/inkscape"
   version="1.1"
   width="183.54918"
   height="100.5"
   viewBox="0 0 183.54918 100.5"
   id="Layer_1"
   xml:space="preserve"
   inkscape:version="0.48.5 r10040"
   sodipodi:docname="purdue2.svg"><sodipodi:namedview
     bordercolor="#666666"
     borderopacity="1"
     objecttolerance="10"
     gridtolerance="10"
     guidetolerance="10"
     inkscape:pageopacity="0"
     inkscape:pageshadow="2"
     inkscape:window-width="1311"
     inkscape:window-height="742"
     id="namedview9"
     showgrid="false"
     inkscape:zoom="1.2150105"
     inkscape:cx="-69.086557"
     inkscape:cy="53.475148"
     inkscape:window-x="447"
     inkscape:window-y="230"
     inkscape:window-maximized="0"
     inkscape:current-layer="Layer_1"
     fit-margin-top="0"
     fit-margin-left="0"
     fit-margin-right="0"
     fit-margin-bottom="0" /><metadata
     id="metadata4146"><rdf:RDF><cc:Work
         rdf:about=""><dc:format>image/svg+xml</dc:format><dc:type
           rdf:resource="http://purl.org/dc/dcmitype/StillImage" /><dc:title></dc:title></cc:Work></rdf:RDF></metadata><defs
     id="defs4144" /><path
     style="font-size:medium;font-style:normal;font-variant:normal;font-weight:normal;font-stretch:normal;text-indent:0;text-align:start;text-decoration:none;line-height:normal;letter-spacing:normal;word-spacing:normal;text-transform:none;direction:ltr;block-progression:tb;writing-mode:lr-tb;text-anchor:start;baseline-shift:baseline;color:#000000;fill:#000000;fill-opacity:1;stroke:none;stroke-width:1;marker:none;visibility:visible;display:inline;overflow:visible;enable-background:accumulate;font-family:Sans;-inkscape-font-specification:Sans"
     d="m 42.90625,1e-4 c -5.976841,13.790615 -11.831381,27.738293 -17.75,41.59375 6.260417,0 12.520833,0 18.78125,0 -2.458333,5.770833 -4.916667,11.541667 -7.375,17.3125 -6.260417,0 -12.520833,0 -18.78125,0 C 11.78516,72.692164 5.9801054,86.67284 -2.4384273e-7,100.5 33.458333,100.5 66.916667,100.5 100.375,100.5 c 3.98483,-9.197095 7.86709,-18.44112 11.8125,-27.65625 16.32578,-0.195301 33.90425,1.653511 48.36703,-7.482751 12.45273,-7.845802 19.13681,-22.180746 22.50543,-36.035747 C 185.69164,18.441651 179.3048,6.4742732 168.59473,2.9579436 156.137,-1.5449527 142.71085,0.45072441 129.7479,0 100.80072,6.6898299e-5 71.853267,-1.3364342e-4 42.90625,1e-4 z M 156.875,1.34385 c 3.40343,-0.4550291 17.20407,4.4626048 8.31245,1.53125 C 162.47377,2.0999205 159.68179,1.6191033 156.875,1.34385 z M 44.21875,2.0001 c 36.512398,0.073061 73.02963,-0.1477943 109.53894,0.1134637 10.64672,0.2217723 23.38791,4.2452506 26.85558,15.5154043 3.27298,11.656862 -3.11944,23.254524 -8.52213,33.182532 -7.74335,13.54075 -23.57544,19.684768 -38.54205,19.937782 -7.55573,0.186331 -15.1162,0.05549 -22.67409,0.09457 -3.98483,9.197095 -7.86709,18.44112 -11.8125,27.65625 -32,0 -64,0 -96.0000002,0 C 8.4062499,85.96885 13.75,73.4376 19.09375,60.90635 c 6.270833,0 12.541667,0 18.8125,0 3.011483,-7.1113 6.024483,-14.231153 9.09375,-21.3125 -6.28125,0 -12.5625,0 -18.84375,0 C 33.510417,27.0626 38.864583,14.53135 44.21875,2.0001 z"
     id="path4136"
     inkscape:connector-curvature="0" /><path
     style="fill:#000000;fill-opacity:1;stroke:none;stroke-opacity:1"
     d="m 121.86089,44.898274 c -11.21,0 -22.420001,0 -33.630001,0 2.308333,-5.42 4.616667,-10.84 6.925,-16.26 11.895741,0.08974 23.807491,-0.18244 35.692911,0.141469 9.11346,1.456986 3.33895,13.23049 -2.78992,14.882437 -1.94925,0.842549 -4.07837,1.237481 -6.19799,1.236094 z m 24.684,-31.253 c -32.45033,0 -64.900667,0 -97.351001,0 -2.128667,4.997667 -4.257333,9.995333 -6.386,14.993 6.261,0 12.522,0 18.783,0 -6.234667,14.641665 -12.469333,29.283331 -18.704,43.924996 -6.272,0 -12.544,0 -18.816,0 -2.130333,5.001667 -4.260667,10.003333 -6.391,15.005 23.820333,0 47.640667,0 71.461,0 2.13,-5.001667 4.26,-10.003333 6.39,-15.005 -6.359667,0 -12.719333,0 -19.079,0 1.798333,-4.224 3.596667,-8.448 5.395,-12.672 17.253456,-0.144487 34.524241,0.314373 51.764961,-0.28018 11.06842,-0.591325 22.50809,-5.797267 27.53384,-16.180441 3.10189,-6.830529 7.7769,-14.187528 6.2127,-21.981361 -3.09109,-7.862184 -13.81275,-7.485277 -20.8135,-7.804014 z"
     id="path4140"
     inkscape:connector-curvature="0" /></svg>

<svg xmlns="http://www.w3.org/2000/svg" version="1.1" viewBox="0 0 183.549 100.5" xml:space="preserve"><path style="text-indent:0;text-align:start;line-height:normal;text-transform:none;block-progression:tb;marker:none;-inkscape-font-specification:Sans" d="M42.906 0c-5.977 13.79-11.831 27.738-17.75 41.594h18.782l-7.376 17.312h-18.78C11.784 72.692 5.98 86.673 0 100.5h100.375c3.985-9.197 7.867-18.441 11.813-27.656 16.325-.196 33.904 1.653 48.367-7.483 12.452-7.846 19.136-22.18 22.505-36.036 2.632-10.883-3.755-22.85-14.465-26.367C156.137-1.545 142.71.45 129.748 0H42.906zm113.969 1.344c3.403-.455 17.204 4.462 8.312 1.531-2.713-.775-5.505-1.256-8.312-1.531zM44.219 2c36.512.073 73.03-.148 109.539.114 10.646.221 23.388 4.245 26.855 15.515 3.273 11.657-3.12 23.254-8.522 33.183-7.743 13.54-23.575 19.684-38.542 19.937-7.556.187-15.116.056-22.674.095-3.985 9.197-7.867 18.441-11.813 27.656h-96l16.032-37.594h18.812c3.012-7.11 6.025-14.23 9.094-21.312H28.156L44.22 2z" font-size="medium" font-style="normal" font-variant="normal" font-weight="400" font-stretch="normal" text-decoration="none" letter-spacing="normal" word-spacing="normal" direction="ltr" writing-mode="lr-tb" text-anchor="start" baseline-shift="baseline" color="#000" fill="#000" fill-opacity="1" stroke="none" stroke-width="1" visibility="visible" display="inline" overflow="visible" font-family="Sans"/><path d="M121.86 44.898H88.23c2.31-5.42 4.618-10.84 6.926-16.26 11.896.09 23.807-.182 35.693.142 9.113 1.457 3.339 13.23-2.79 14.882-1.95.843-4.078 1.238-6.198 1.236zm24.685-31.253H49.194l-6.386 14.993H61.59L42.887 72.563H24.07L17.68 87.568h71.46l6.39-15.005H76.453l5.395-12.672c17.253-.144 34.524.315 51.765-.28 11.068-.591 22.508-5.797 27.534-16.18 3.102-6.83 7.777-14.188 6.212-21.982-3.09-7.862-13.812-7.485-20.813-7.804z" fill="#000" fill-opacity="1" stroke="none" stroke-opacity="1"/></svg>
